coreui/free/cil-globe-alt.svg

<svg viewBox="0 0 512 512" xmlns="http://www.w3.org/2000/svg"><path d="M256 16C123.452 16 16 123.452 16 256c0 132.548 107.452 240 240 240s240-107.452 240-240 -107.452-240-240-240Zm-80.953 431.66v0c-105.78-44.8-155.31-166.77-110.72-272.62 1.01-2.41 2.09-4.79 3.2-7.15l52.46 47.22v63.23l77.1 81.63h38.9v49.04l-47.06 43.91q-7.03-2.4-13.91-5.3Zm228.03-44.589v-.001c-38.97 39.07-91.9 61-147.08 60.92l-.001-.001c-9.95 0-19.88-.71-29.73-2.11l41.72-38.94v-94.96h-57.1l-58.9-62.37v-64.77l-68.3-61.47 0-.001c22.59-33.29 54.31-59.36 91.34-75.08l-.001-.001c64.36-27.23 138.11-20.28 196.25 18.506l-45.57 58.58 15.49 38.72 -10.49 10.48 -78.618-15.73 -44.13 33.09v88h176l50.34 67.12v0C425.53 377.59 415.03 391 403.02 403Zm60.92-147.08h-.001c.04 25.58-4.66 50.96-13.88 74.83l-50.13-66.84h-160v-40l19.87-14.91 81.382 16.27 37.51-37.52 -16.51-41.28 34.2-43.98q3.36 3.08 6.61 6.32l0-.001c39.07 38.96 61 91.89 60.92 147.078Z"/></svg>

<svg xmlns="http://www.w3.org/2000/svg" viewBox="0 0 512 512">
  <path fill="var(--ci-primary-color, currentColor)" d="M256,16C123.452,16,16,123.452,16,256S123.452,496,256,496,496,388.548,496,256,388.548,16,256,16ZM175.047,447.667A208.26,208.26,0,0,1,64.333,175.047c1.018-2.408,2.092-4.785,3.2-7.145L120,215.126v63.235L197.1,360H236v49.047l-47.052,43.915Q181.926,450.568,175.047,447.667Zm228.031-44.589A207.253,207.253,0,0,1,256,464a210.4,210.4,0,0,1-29.722-2.107L268,422.953V328H210.9L152,265.639V200.874L83.7,139.408a209.259,209.259,0,0,1,91.343-75.075A207.793,207.793,0,0,1,371.3,82.839l-45.564,58.582,15.49,38.725-10.485,10.485-78.618-15.723L208,208v88H384l50.345,67.126A208.127,208.127,0,0,1,403.078,403.078ZM464,256a206.763,206.763,0,0,1-13.873,74.837L400,264H240V224l19.877-14.908,81.382,16.277,37.515-37.515-16.51-41.275,34.2-43.977q3.361,3.084,6.61,6.32A207.253,207.253,0,0,1,464,256Z" class="ci-primary"/>
</svg>
